icons/evolvere-blue-folders-flat-vivid-dark-fallback/apps/64/myunity.svg

<?xml version="1.0" encoding="UTF-8" standalone="no"?>
<!-- Created with Inkscape (http://www.inkscape.org/) -->

<svg
   xmlns:dc="http://purl.org/dc/elements/1.1/"
   xmlns:cc="http://creativecommons.org/ns#"
   xmlns:rdf="http://www.w3.org/1999/02/22-rdf-syntax-ns#"
   xmlns:svg="http://www.w3.org/2000/svg"
   xmlns="http://www.w3.org/2000/svg"
   xmlns:sodipodi="http://sodipodi.sourceforge.net/DTD/sodipodi-0.dtd"
   xmlns:inkscape="http://www.inkscape.org/namespaces/inkscape"
   width="64"
   height="64"
   id="svg13094"
   version="1.1"
   inkscape:version="0.91+devel r"
   sodipodi:docname="myunity.svg">
  <sodipodi:namedview
     id="base"
     pagecolor="#ffffff"
     bordercolor="#666666"
     borderopacity="1.0"
     inkscape:pageopacity="0"
     inkscape:pageshadow="2"
     inkscape:zoom="11.313709"
     inkscape:cx="35.336577"
     inkscape:cy="28.708011"
     inkscape:document-units="px"
     inkscape:current-layer="svg13094"
     showgrid="true"
     inkscape:snap-bbox="true"
     inkscape:bbox-paths="true"
     inkscape:bbox-nodes="true"
     inkscape:snap-bbox-edge-midpoints="true"
     inkscape:snap-bbox-midpoints="true"
     inkscape:object-paths="true"
     inkscape:snap-intersection-paths="true"
     inkscape:object-nodes="true"
     inkscape:snap-smooth-nodes="true"
     inkscape:snap-midpoints="true"
     inkscape:snap-object-midpoints="true"
     inkscape:snap-center="true"
     showguides="true"
     inkscape:guide-bbox="true"
     inkscape:window-width="1920"
     inkscape:window-height="1023"
     inkscape:window-x="-10"
     inkscape:window-y="35"
     inkscape:window-maximized="1"
     inkscape:snap-global="true"
     fit-margin-top="0"
     fit-margin-left="0"
     fit-margin-right="0"
     fit-margin-bottom="0"
     showborder="true"
     inkscape:showpageshadow="false"
     inkscape:snap-page="true">
    <inkscape:grid
       type="xygrid"
       id="grid3075"
       empspacing="5"
       visible="true"
       enabled="true"
       snapvisiblegridlinesonly="true"
       originx="0px"
       originy="18px" />
  </sodipodi:namedview>
  <defs
     id="defs13096" />
  <metadata
     id="metadata13099">
    <rdf:RDF>
      <cc:Work
         rdf:about="">
        <dc:format>image/svg+xml</dc:format>
        <dc:type
           rdf:resource="http://purl.org/dc/dcmitype/StillImage" />
        <dc:title></dc:title>
      </cc:Work>
    </rdf:RDF>
  </metadata>
  <path
     inkscape:connector-curvature="0"
     style="color:#000000;fill:#16a8c7;fill-opacity:1;fill-rule:nonzero;stroke:none;stroke-width:2.28571415;marker:none;visibility:visible;display:inline;overflow:visible;enable-background:accumulate"
     d="m 0,4 0,30 0,28 2,2 30,0 30,0 2,-2 L 64,34 64,4 32,4 0,4 z"
     id="path3443" />
  <path
     inkscape:connector-curvature="0"
     style="color:#000000;fill:#41d9f3;fill-opacity:1;fill-rule:nonzero;stroke:none;stroke-width:2.28571415000000000;marker:none;visibility:visible;display:inline;overflow:visible;enable-background:accumulate"
     d="M 2,0 0,1 0,4 32,4 64,4 64,1 62,0 32,0 2,0 z"
     id="path3447" />
  <path
     style="fill:#65e0f5;fill-opacity:1;fill-rule:nonzero"
     d="M 0,3 0,6 2,4 Z"
     id="path4298"
     inkscape:connector-curvature="0"
     sodipodi:nodetypes="cccc" />
  <path
     d="M 64,6 62,4 64,3 z"
     id="path3028"
     style="fill:#2abfdb;fill-opacity:1"
     inkscape:connector-curvature="0" />
  <g
     id="g3043"
     inkscape:export-filename="folder.png"
     inkscape:export-xdpi="90"
     inkscape:export-ydpi="90"
     transform="translate(-0.625,0.082283)" />
  <g
     id="scalable"
     transform="matrix(1.0385892,0,0,1.0385892,1214.7222,1878.8121)"
     inkscape:label="#g3701"
     style="fill:#ffffff" />
  <path
     style="fill:#9ccd1e;fill-opacity:1;stroke:none"
     d="M 21.625,18.9375 29.25,39 l 0,0.03125 0,8.03125 5.53125,0 0,-8.03125 0,-0.03125 -7.625,-20.0625 -5.53125,0 z m 15.21875,0 7.625,28.125 5.53125,0 -7.625,-28.125 -5.53125,0 z"
     id="path3012-29-4"
     inkscape:connector-curvature="0" />
  <path
     style="opacity:0.8;fill:#83a910;stroke:none;fill-opacity:1"
     d="m 42.419437,18.925367 -1.99024,13.151537 -1.713091,-6.123618 z"
     id="path4081-1-9"
     inkscape:connector-curvature="0"
     sodipodi:nodetypes="cccc" />
  <path
     style="opacity:0.8;fill:#83a910;stroke:none;fill-opacity:1"
     d="m 27.185278,18.925367 -0.51732,13.151537 -2.176011,-5.660699 z"
     id="path4081-7"
     inkscape:connector-curvature="0"
     sodipodi:nodetypes="cccc" />
  <path
     style="fill:#cff539;fill-opacity:1;stroke:none"
     d="M 21.625,18.9375 14,47.0625 l 5.53125,0 7.625,-28.125 -5.53125,0 z m 15.25,0 L 32,31.75 l 2.78125,7.28125 7.65625,-20.09375 -5.5625,0 z"
     id="path3012-7-8"
     inkscape:connector-curvature="0" />
</svg>

<svg xmlns="http://www.w3.org/2000/svg" viewBox="0 0 64 64"><g color="#000"><path d="m0 4v30 28l2 2h30 30l2-2v-28-30h-32-32" fill="#16a8c7"/><path d="m2 0l-2 1v3h32 32v-3l-2-1h-30-30" fill="#41d9f3"/></g><path d="m0 3v3l2-2" fill="#65e0f5"/><path d="m64 6l-2-2 2-1z" fill="#2abfdb"/><path d="m21.625 18.938l7.625 20.06v.031 8.03h5.531v-8.03-.031l-7.625-20.06h-5.531m15.219 0l7.625 28.13h5.531l-7.625-28.12h-5.531" fill="#9ccd1e"/><g fill="#83a910"><path d="m42.42 18.925l-1.99 13.152-1.713-6.124z" opacity=".8"/><path d="m27.19 18.925l-.517 13.152-2.176-5.661z" opacity=".8"/></g><path d="m21.625 18.938l-7.625 28.13h5.531l7.625-28.12h-5.531m15.25 0l-4.875 12.813 2.781 7.281 7.656-20.09h-5.563" fill="#cff539"/></svg>
